modules/zondicons/icons/align-justified.svg

<svg width="20" height="20" viewBox="0 0 20 20" xmlns="http://www.w3.org/2000/svg"><path d="M1 1h18v2H1V1zm0 8h18v2H1V9zm0 8h18v2H1v-2zM1 5h18v2H1V5zm0 8h18v2H1v-2z" fill="#000" fill-rule="evenodd"/></svg>

<?xml version="1.0" encoding="UTF-8" standalone="no"?>
<svg width="20px" height="20px" viewBox="0 0 20 20" version="1.1" xmlns="http://www.w3.org/2000/svg" xmlns:xlink="http://www.w3.org/1999/xlink">
    <!-- Generator: Sketch 3.7.2 (28276) - http://www.bohemiancoding.com/sketch -->
    <title>align-justified</title>
    <desc>Created with Sketch.</desc>
    <defs></defs>
    <g id="Page-1" stroke="none" stroke-width="1" fill="none" fill-rule="evenodd">
        <g id="align-justified" fill="#000000">
            <path d="M1,1 L19,1 L19,3 L1,3 L1,1 Z M1,9 L19,9 L19,11 L1,11 L1,9 Z M1,17 L19,17 L19,19 L1,19 L1,17 Z M1,5 L19,5 L19,7 L1,7 L1,5 Z M1,13 L19,13 L19,15 L1,15 L1,13 Z" id="Combined-Shape"></path>
        </g>
    </g>
</svg>
